icons/bhi_preview.svg

<svg xmlns="http://www.w3.org/2000/svg" viewBox="0 0 512 512" enable-background="new 0 0 512 512"><path fill="#010101" d="M480.2 232h.2l-133.6-152.9h-.1c-9.6-9.3-22.7-15.1-37.2-15.1-17.9 0-33.7 8.9-43.4 22.4-3.3-.4-6.6-1-10.1-1s-6.7.6-10.1 1c-9.7-13.5-25.5-22.4-43.4-22.4-14.5 0-27.5 5.8-37.2 15.1h-.1l-133.6 152.9h.2c-20.2 19.5-32.8 46.6-32.8 76.9 0 59.1 48 107.1 107.1 107.1 50.3 0 92.2-34.9 103.7-81.8l7.5-29.2c6.8-14.6 21.5-48.2 38.7-48.2s31.8 33.7 38.7 48.2l7.5 29.2c11.4 46.9 53.4 81.8 103.7 81.8 59.2 0 107.1-48 107.1-107.1 0-30.3-12.7-57.4-32.8-76.9zm-374.1 119.8c-23.7 0-42.9-19.2-42.9-42.9 0-23.6 19.2-42.8 42.9-42.8 23.6 0 42.8 19.2 42.8 42.8 0 23.6-19.2 42.9-42.8 42.9zm149.9-137.9c-8 0-15.6 1.5-22.9 3.5l21.4-87.1-.1-.1.6-1.9 1.1-.1 1.1.1c.1.7.4 1.3.6 1.9l-.1.1 21.4 87.1c-7.5-2-15.1-3.5-23.1-3.5zm149.8 137.9c-23.6 0-42.8-19.2-42.8-42.9 0-23.6 19.2-42.8 42.8-42.8 23.6 0 42.9 19.2 42.9 42.8 0 23.6-19.2 42.9-42.9 42.9z"/></svg>

<?xml version="1.0" encoding="utf-8"?>
<!-- Generator: Adobe Illustrator 19.2.0, SVG Export Plug-In . SVG Version: 6.00 Build 0)  -->
<svg version="1.1" id="Layer_1" xmlns="http://www.w3.org/2000/svg" xmlns:xlink="http://www.w3.org/1999/xlink" x="0px" y="0px"
	 viewBox="0 0 512 512" enable-background="new 0 0 512 512" xml:space="preserve">
<path fill="#010101" d="M480.2,232l0.2,0L346.8,79.1l-0.1,0C337.1,69.8,324,64,309.5,64c-17.9,0-33.7,8.9-43.4,22.4
	c-3.3-0.4-6.6-1-10.1-1c-3.5,0-6.7,0.6-10.1,1C236.2,72.9,220.4,64,202.5,64c-14.5,0-27.5,5.8-37.2,15.1l-0.1,0L31.6,232l0.2,0
	C11.6,251.5-1,278.6-1,308.9C-1,368,47,416,106.1,416c50.3,0,92.2-34.9,103.7-81.8l7.5-29.2c6.8-14.6,21.5-48.2,38.7-48.2
	s31.8,33.7,38.7,48.2l7.5,29.2c11.4,46.9,53.4,81.8,103.7,81.8c59.2,0,107.1-48,107.1-107.1C513,278.6,500.3,251.5,480.2,232z
	 M106.1,351.8c-23.7,0-42.9-19.2-42.9-42.9c0-23.6,19.2-42.8,42.9-42.8c23.6,0,42.8,19.2,42.8,42.8
	C148.9,332.5,129.7,351.8,106.1,351.8z M256,213.9c-8,0-15.6,1.5-22.9,3.5l21.4-87.1l-0.1-0.1c0.2-0.6,0.4-1.3,0.6-1.9
	c0.4,0,0.7-0.1,1.1-0.1c0.4,0,0.7,0.1,1.1,0.1c0.1,0.7,0.4,1.3,0.6,1.9l-0.1,0.1l21.4,87.1C271.6,215.4,264,213.9,256,213.9z
	 M405.8,351.8c-23.6,0-42.8-19.2-42.8-42.9c0-23.6,19.2-42.8,42.8-42.8c23.6,0,42.9,19.2,42.9,42.8
	C448.7,332.5,429.5,351.8,405.8,351.8z"/>
</svg>
